X:1
T:O come à questi
T:O come à questi
T:Raffaello Rontani
T:Source : Le varie Musiche a uno e due voci---Roma---G.B.Robletti---1622. Editor : André Vierendeels (25/05/16).
T:Notes : Original clefs : C1, F4 Figures in BC are notated in original print 
T:©
T:©
C:Raffaello Rontani
Z:©
%%score 1 2
L:1/8
Q:1/4=96
M:4/4
K:C
V:1 treble nm="Soprano" snm="S"
V:2 bass nm="BC" snm="BC"
V:1
 z4 d4- | d2 BB BB B2- | BAAG A2 A2 | d2 de Te3 d | Td3 .c c2 d2 | Td4 c4 :: z2 B2 dTc cB | %7
w: O|_ co- me'à que- sti pog-|* gi'à que- sta spon- da,|gi- ra be- ni- gno'il|So- le'ar- ri- de'il|Cie- lo,|qui l'au- * ra _|
 z GGG G^FFE | ^F2 F2 z2 dd | d2 ^cc d4- | d2 G2 A2 A2 | A4 G4 | z8 | z8 | z8 | z2 GG G2 GG | %16
w: e piu gen- til piu fres- cha'è|l'on- da, men co-|cen- te l'ar- dor|_ me fred- do'il|ge- lo,||||qui la ter- ra di|
 G2 F3 F E2 | E2 E2 z EEF | G2 G2 z GGG | A3 E ^F2 F2 :: z AAB c2 c2 | z2 e4 dd | d2 c2 d4 | %23
w: fior mi- sto non|fron- da con es- to'ha'il|man- to, e ri- ca-|ma- to'il ve- lo,|e sem- bran dir mi,|ahi, ti con-|so- la'e vi-|
 c2 e2 e2 d2 | d3 ^c d2 A2- | A2 c4 B2 | TA3 G A4 | G8 | z8 | z8 | z8 :| %31
w: vi gl'au- gei can-|tan- do _ e|_ mor- mo|ran- do'i ri-|vi.||||
V:2
 G,,8 | G,,8 | G,,4 D,4 | D,4 A,,4 | D,4 A,,2 F,,2 | G,,4 C,4 :: G,,8 | G,,8 | D,8 | %9
"^7 6" E,4 ^F,4 | G,2 B,,2 C,2 E,2 | D,4 G,,4 | G,2 F,2 E,2 B,,2 | C,2 D,2 E,2 B,,2 | D,4 G,,4 | %15
 G,,8- | G,,8 | C,8 | C,8 |"^6""^#" C,4 D,4 ::"^#" D,4 A,,4 | A,,4 F,,4 | G,,2 A,,2 G,,4 | %23
 C,4 G,,2 _B,,2 |"^4#" A,,4 D,4 | A,,4 B,,4 | C,2 E,2 D,4 | G,,8 | G,2 F,2 E,2 B,,2 | %29
 C,2 D,2 E,2 C,2 | D,4 G,,4 :| %31

